X:300
T:Reel 300
M:4/4
K:Ador
L:1/8
GF|EA, (3CB,A, EA, (3A,A,C |EDEF GEDB,|G,2B,G, DG,B,G,|CDEF G2FG|EA, (3CB,A, EA,CA,|EDEF G2FG|AFGE DB,G,B,|A,CB,G, A,2|CD|EAAG A2AB|AGBA GEEF|GDGF GFGA|BcBA GFED|EAAG A2AG|EAAB cBAG|AFGE DB,G,B,|A,CB,G, A,2|
